images/3247348.svg

<?xml version="1.0" encoding="UTF-8"?>
<svg xmlns="http://www.w3.org/2000/svg" xmlns:xlink="http://www.w3.org/1999/xlink" width="300pt" height="300pt" viewBox="0 0 300 300" version="1.1">
<defs>
<g>
<symbol overflow="visible" id="glyph0-0">
<path style="stroke:none;" d="M 0.546875 1.9375 L 0.546875 -7.75 L 6.046875 -7.75 L 6.046875 1.9375 Z M 1.171875 1.328125 L 5.4375 1.328125 L 5.4375 -7.140625 L 1.171875 -7.140625 Z M 1.171875 1.328125 "/>
</symbol>
<symbol overflow="visible" id="glyph0-1">
<path style="stroke:none;" d="M 4.328125 -7.28125 C 3.546875 -7.28125 2.921875 -6.984375 2.453125 -6.390625 C 1.992188 -5.804688 1.765625 -5.007812 1.765625 -4 C 1.765625 -2.988281 1.992188 -2.1875 2.453125 -1.59375 C 2.921875 -1.007812 3.546875 -0.71875 4.328125 -0.71875 C 5.117188 -0.71875 5.742188 -1.007812 6.203125 -1.59375 C 6.660156 -2.1875 6.890625 -2.988281 6.890625 -4 C 6.890625 -5.007812 6.660156 -5.804688 6.203125 -6.390625 C 5.742188 -6.984375 5.117188 -7.28125 4.328125 -7.28125 Z M 4.328125 -8.171875 C 5.453125 -8.171875 6.351562 -7.789062 7.03125 -7.03125 C 7.707031 -6.28125 8.046875 -5.269531 8.046875 -4 C 8.046875 -2.738281 7.707031 -1.726562 7.03125 -0.96875 C 6.351562 -0.21875 5.453125 0.15625 4.328125 0.15625 C 3.203125 0.15625 2.300781 -0.21875 1.625 -0.96875 C 0.957031 -1.71875 0.625 -2.726562 0.625 -4 C 0.625 -5.269531 0.957031 -6.28125 1.625 -7.03125 C 2.300781 -7.789062 3.203125 -8.171875 4.328125 -8.171875 Z M 4.328125 -8.171875 "/>
</symbol>
<symbol overflow="visible" id="glyph0-2">
<path style="stroke:none;" d="M 1.078125 -8.015625 L 2.546875 -8.015625 L 6.09375 -1.3125 L 6.09375 -8.015625 L 7.15625 -8.015625 L 7.15625 0 L 5.6875 0 L 2.125 -6.703125 L 2.125 0 L 1.078125 0 Z M 1.078125 -8.015625 "/>
</symbol>
<symbol overflow="visible" id="glyph0-3">
<path style="stroke:none;" d="M 1.078125 -8.015625 L 2.171875 -8.015625 L 2.171875 -4.734375 L 6.109375 -4.734375 L 6.109375 -8.015625 L 7.1875 -8.015625 L 7.1875 0 L 6.109375 0 L 6.109375 -3.8125 L 2.171875 -3.8125 L 2.171875 0 L 1.078125 0 Z M 1.078125 -8.015625 "/>
</symbol>
<symbol overflow="visible" id="glyph0-4">
<path style="stroke:none;" d="M 1.078125 -8.015625 L 5.6875 -8.015625 L 5.6875 -7.109375 L 2.171875 -7.109375 L 2.171875 -4.75 L 5.34375 -4.75 L 5.34375 -3.828125 L 2.171875 -3.828125 L 2.171875 0 L 1.078125 0 Z M 1.078125 -8.015625 "/>
</symbol>
</g>
</defs>
<g id="surface48409">
<rect x="0" y="0" width="300" height="300" style="fill:rgb(100%,100%,100%);fill-opacity:1;stroke:none;"/>
<path style="fill:none;stroke-width:1.2;stroke-linecap:butt;stroke-linejoin:miter;stroke:rgb(0%,0%,0%);stroke-opacity:1;stroke-miterlimit:10;" d="M 255.675781 72.210938 L 244.148438 78.78125 "/>
<path style="fill:none;stroke-width:1.2;stroke-linecap:butt;stroke-linejoin:miter;stroke:rgb(100%,0%,0%);stroke-opacity:1;stroke-miterlimit:10;" d="M 244.148438 78.78125 L 232.621094 85.351562 "/>
<path style="fill:none;stroke-width:1.2;stroke-linecap:butt;stroke-linejoin:miter;stroke:rgb(100%,0%,0%);stroke-opacity:1;stroke-miterlimit:10;" d="M 232.621094 85.351562 L 232.550781 98.621094 "/>
<path style="fill:none;stroke-width:1.2;stroke-linecap:butt;stroke-linejoin:miter;stroke:rgb(0%,0%,0%);stroke-opacity:1;stroke-miterlimit:10;" d="M 232.550781 98.621094 L 232.476562 111.886719 "/>
<path style=" stroke:none;fill-rule:nonzero;fill:rgb(100%,100%,100%);fill-opacity:1;" d="M 228.621094 78.851562 L 237.621094 78.851562 L 237.621094 91.851562 L 228.621094 91.851562 Z M 228.621094 78.851562 "/>
<g style="fill:rgb(100%,0%,0%);fill-opacity:1;">
  <use xlink:href="#glyph0-1" x="228.621094" y="88.75293"/>
</g>
<path style="fill:none;stroke-width:1.2;stroke-linecap:butt;stroke-linejoin:miter;stroke:rgb(0%,0%,0%);stroke-opacity:1;stroke-miterlimit:10;" d="M 230.902344 114.582031 L 242.355469 121.277344 "/>
<path style="fill:none;stroke-width:1.2;stroke-linecap:butt;stroke-linejoin:miter;stroke:rgb(100%,0%,0%);stroke-opacity:1;stroke-miterlimit:10;" d="M 242.355469 121.277344 L 253.808594 127.976562 "/>
<path style="fill:none;stroke-width:1.2;stroke-linecap:butt;stroke-linejoin:miter;stroke:rgb(0%,0%,0%);stroke-opacity:1;stroke-miterlimit:10;" d="M 234.050781 109.191406 L 245.503906 115.886719 "/>
<path style="fill:none;stroke-width:1.2;stroke-linecap:butt;stroke-linejoin:miter;stroke:rgb(100%,0%,0%);stroke-opacity:1;stroke-miterlimit:10;" d="M 245.503906 115.886719 L 256.957031 122.585938 "/>
<path style="fill:none;stroke-width:1;stroke-linecap:butt;stroke-linejoin:miter;stroke:rgb(0%,0%,0%);stroke-opacity:1;stroke-miterlimit:10;" d="M 209.425781 125.027344 L 209.425781 125.027344 M 212.25 124.015625 L 211.734375 123.113281 M 215.074219 123.007812 L 214.042969 121.195312 M 217.898438 121.996094 L 216.351562 119.277344 M 220.722656 120.988281 L 218.65625 117.363281 M 223.546875 119.976562 L 220.964844 115.445312 M 226.375 118.964844 L 223.273438 113.53125 M 229.199219 117.957031 L 225.582031 111.613281 M 232.023438 116.945312 L 227.890625 109.699219 M 234.796875 115.953125 L 230.15625 107.820312 "/>
<path style=" stroke:none;fill-rule:nonzero;fill:rgb(100%,100%,100%);fill-opacity:1;" d="M 251.382812 118.78125 L 260.382812 118.78125 L 260.382812 131.78125 L 251.382812 131.78125 Z M 251.382812 118.78125 "/>
<g style="fill:rgb(100%,0%,0%);fill-opacity:1;">
  <use xlink:href="#glyph0-1" x="251.382812" y="128.682617"/>
</g>
<path style="fill:none;stroke-width:1.2;stroke-linecap:butt;stroke-linejoin:miter;stroke:rgb(0%,0%,0%);stroke-opacity:1;stroke-miterlimit:10;" d="M 209.425781 125.027344 L 182.890625 124.882812 "/>
<path style="fill:none;stroke-width:1.2;stroke-linecap:butt;stroke-linejoin:miter;stroke:rgb(0%,0%,0%);stroke-opacity:1;stroke-miterlimit:10;" d="M 196.03125 147.933594 L 209.425781 125.027344 "/>
<path style=" stroke:none;fill-rule:nonzero;fill:rgb(0%,0%,0%);fill-opacity:1;" d="M 196.03125 147.933594 L 186.957031 122.5625 L 178.824219 127.199219 Z M 196.03125 147.933594 "/>
<path style="fill:none;stroke-width:1.2;stroke-linecap:butt;stroke-linejoin:miter;stroke:rgb(0%,0%,0%);stroke-opacity:1;stroke-miterlimit:10;" d="M 196.03125 147.933594 L 195.886719 174.46875 "/>
<path style=" stroke:none;fill-rule:nonzero;fill:rgb(0%,0%,0%);fill-opacity:1;" d="M 195.886719 174.46875 L 216.429688 191.902344 L 221.15625 183.820312 Z M 195.886719 174.46875 "/>
<path style="fill:none;stroke-width:1.2;stroke-linecap:butt;stroke-linejoin:miter;stroke:rgb(0%,0%,0%);stroke-opacity:1;stroke-miterlimit:10;" d="M 195.886719 174.46875 L 184.359375 181.039062 "/>
<path style="fill:none;stroke-width:1.2;stroke-linecap:butt;stroke-linejoin:miter;stroke:rgb(0%,0%,100%);stroke-opacity:1;stroke-miterlimit:10;" d="M 184.359375 181.039062 L 172.832031 187.609375 "/>
<path style="fill:none;stroke-width:1.2;stroke-linecap:butt;stroke-linejoin:miter;stroke:rgb(0%,0%,0%);stroke-opacity:1;stroke-miterlimit:10;" d="M 218.792969 187.859375 L 218.644531 214.394531 "/>
<path style="fill:none;stroke-width:1.2;stroke-linecap:butt;stroke-linejoin:miter;stroke:rgb(0%,0%,0%);stroke-opacity:1;stroke-miterlimit:10;" d="M 225.019531 190.546875 L 224.902344 211.777344 "/>
<path style="fill:none;stroke-width:1.2;stroke-linecap:butt;stroke-linejoin:miter;stroke:rgb(0%,0%,0%);stroke-opacity:1;stroke-miterlimit:10;" d="M 241.84375 174.71875 L 218.792969 187.859375 "/>
<path style="fill:none;stroke-width:1.2;stroke-linecap:butt;stroke-linejoin:miter;stroke:rgb(0%,0%,0%);stroke-opacity:1;stroke-miterlimit:10;" d="M 218.644531 214.394531 L 241.550781 227.789062 "/>
<path style="fill:none;stroke-width:1.2;stroke-linecap:butt;stroke-linejoin:miter;stroke:rgb(0%,0%,0%);stroke-opacity:1;stroke-miterlimit:10;" d="M 241.550781 227.789062 L 264.605469 214.648438 "/>
<path style="fill:none;stroke-width:1.2;stroke-linecap:butt;stroke-linejoin:miter;stroke:rgb(0%,0%,0%);stroke-opacity:1;stroke-miterlimit:10;" d="M 240.765625 221.050781 L 259.207031 210.539062 "/>
<path style="fill:none;stroke-width:1.2;stroke-linecap:butt;stroke-linejoin:miter;stroke:rgb(0%,0%,0%);stroke-opacity:1;stroke-miterlimit:10;" d="M 264.605469 214.648438 L 264.75 188.113281 "/>
<path style="fill:none;stroke-width:1.2;stroke-linecap:butt;stroke-linejoin:miter;stroke:rgb(0%,0%,0%);stroke-opacity:1;stroke-miterlimit:10;" d="M 264.75 188.113281 L 241.84375 174.71875 "/>
<path style="fill:none;stroke-width:1.2;stroke-linecap:butt;stroke-linejoin:miter;stroke:rgb(0%,0%,0%);stroke-opacity:1;stroke-miterlimit:10;" d="M 259.308594 192.164062 L 240.984375 181.449219 "/>
<path style="fill:none;stroke-width:1.2;stroke-linecap:butt;stroke-linejoin:miter;stroke:rgb(0%,0%,100%);stroke-opacity:1;stroke-miterlimit:10;" d="M 172.832031 187.609375 L 161.378906 180.910156 "/>
<path style="fill:none;stroke-width:1.2;stroke-linecap:butt;stroke-linejoin:miter;stroke:rgb(0%,0%,0%);stroke-opacity:1;stroke-miterlimit:10;" d="M 161.378906 180.910156 L 149.925781 174.214844 "/>
<path style=" stroke:none;fill-rule:nonzero;fill:rgb(100%,100%,100%);fill-opacity:1;" d="M 164.832031 181.109375 L 181.832031 181.109375 L 181.832031 194.109375 L 164.832031 194.109375 Z M 164.832031 181.109375 "/>
<g style="fill:rgb(0%,0%,100%);fill-opacity:1;">
  <use xlink:href="#glyph0-2" x="164.832031" y="191.010742"/>
  <use xlink:href="#glyph0-3" x="172.81543" y="191.010742"/>
</g>
<path style="fill:none;stroke-width:1.2;stroke-linecap:butt;stroke-linejoin:miter;stroke:rgb(0%,0%,0%);stroke-opacity:1;stroke-miterlimit:10;" d="M 153.046875 174.230469 L 153.121094 160.964844 "/>
<path style="fill:none;stroke-width:1.2;stroke-linecap:butt;stroke-linejoin:miter;stroke:rgb(100%,0%,0%);stroke-opacity:1;stroke-miterlimit:10;" d="M 153.121094 160.964844 L 153.195312 147.699219 "/>
<path style="fill:none;stroke-width:1.2;stroke-linecap:butt;stroke-linejoin:miter;stroke:rgb(0%,0%,0%);stroke-opacity:1;stroke-miterlimit:10;" d="M 146.804688 174.199219 L 146.878906 160.929688 "/>
<path style="fill:none;stroke-width:1.2;stroke-linecap:butt;stroke-linejoin:miter;stroke:rgb(100%,0%,0%);stroke-opacity:1;stroke-miterlimit:10;" d="M 146.878906 160.929688 L 146.953125 147.664062 "/>
<path style="fill:none;stroke-width:1.2;stroke-linecap:butt;stroke-linejoin:miter;stroke:rgb(0%,0%,0%);stroke-opacity:1;stroke-miterlimit:10;" d="M 149.925781 174.214844 L 138.402344 180.785156 "/>
<path style="fill:none;stroke-width:1.2;stroke-linecap:butt;stroke-linejoin:miter;stroke:rgb(100%,0%,0%);stroke-opacity:1;stroke-miterlimit:10;" d="M 138.402344 180.785156 L 126.875 187.355469 "/>
<path style=" stroke:none;fill-rule:nonzero;fill:rgb(100%,100%,100%);fill-opacity:1;" d="M 146.074219 141.179688 L 155.074219 141.179688 L 155.074219 154.179688 L 146.074219 154.179688 Z M 146.074219 141.179688 "/>
<g style="fill:rgb(100%,0%,0%);fill-opacity:1;">
  <use xlink:href="#glyph0-1" x="146.074219" y="151.081055"/>
</g>
<path style="fill:none;stroke-width:1.2;stroke-linecap:butt;stroke-linejoin:miter;stroke:rgb(100%,0%,0%);stroke-opacity:1;stroke-miterlimit:10;" d="M 126.875 187.355469 L 115.421875 180.660156 "/>
<path style="fill:none;stroke-width:1.2;stroke-linecap:butt;stroke-linejoin:miter;stroke:rgb(0%,0%,0%);stroke-opacity:1;stroke-miterlimit:10;" d="M 115.421875 180.660156 L 103.96875 173.960938 "/>
<path style=" stroke:none;fill-rule:nonzero;fill:rgb(100%,100%,100%);fill-opacity:1;" d="M 122.875 180.855469 L 131.875 180.855469 L 131.875 193.855469 L 122.875 193.855469 Z M 122.875 180.855469 "/>
<g style="fill:rgb(100%,0%,0%);fill-opacity:1;">
  <use xlink:href="#glyph0-1" x="122.875" y="190.756836"/>
</g>
<path style="fill:none;stroke-width:1.2;stroke-linecap:butt;stroke-linejoin:miter;stroke:rgb(0%,0%,0%);stroke-opacity:1;stroke-miterlimit:10;" d="M 103.96875 173.960938 L 104.113281 147.429688 "/>
<path style="fill:none;stroke-width:1.2;stroke-linecap:butt;stroke-linejoin:miter;stroke:rgb(0%,0%,0%);stroke-opacity:1;stroke-miterlimit:10;" d="M 97.738281 171.273438 L 97.855469 150.046875 "/>
<path style="fill:none;stroke-width:1.2;stroke-linecap:butt;stroke-linejoin:miter;stroke:rgb(0%,0%,0%);stroke-opacity:1;stroke-miterlimit:10;" d="M 80.917969 187.105469 L 103.96875 173.960938 "/>
<path style="fill:none;stroke-width:1.2;stroke-linecap:butt;stroke-linejoin:miter;stroke:rgb(0%,0%,0%);stroke-opacity:1;stroke-miterlimit:10;" d="M 104.113281 147.429688 L 81.207031 134.035156 "/>
<path style="fill:none;stroke-width:1.2;stroke-linecap:butt;stroke-linejoin:miter;stroke:rgb(0%,0%,0%);stroke-opacity:1;stroke-miterlimit:10;" d="M 81.207031 134.035156 L 58.15625 147.175781 "/>
<path style="fill:none;stroke-width:1.2;stroke-linecap:butt;stroke-linejoin:miter;stroke:rgb(0%,0%,0%);stroke-opacity:1;stroke-miterlimit:10;" d="M 81.996094 140.773438 L 63.554688 151.285156 "/>
<path style="fill:none;stroke-width:1.2;stroke-linecap:butt;stroke-linejoin:miter;stroke:rgb(0%,0%,0%);stroke-opacity:1;stroke-miterlimit:10;" d="M 58.15625 147.175781 L 58.011719 173.710938 "/>
<path style="fill:none;stroke-width:1.2;stroke-linecap:butt;stroke-linejoin:miter;stroke:rgb(0%,0%,0%);stroke-opacity:1;stroke-miterlimit:10;" d="M 58.15625 147.175781 L 46.703125 140.480469 "/>
<path style="fill:none;stroke-width:1.2;stroke-linecap:butt;stroke-linejoin:miter;stroke:rgb(20%,80%,80%);stroke-opacity:1;stroke-miterlimit:10;" d="M 46.703125 140.480469 L 35.25 133.78125 "/>
<path style="fill:none;stroke-width:1.2;stroke-linecap:butt;stroke-linejoin:miter;stroke:rgb(0%,0%,0%);stroke-opacity:1;stroke-miterlimit:10;" d="M 58.011719 173.710938 L 80.917969 187.105469 "/>
<path style="fill:none;stroke-width:1.2;stroke-linecap:butt;stroke-linejoin:miter;stroke:rgb(0%,0%,0%);stroke-opacity:1;stroke-miterlimit:10;" d="M 63.453125 169.660156 L 81.777344 180.375 "/>
<path style=" stroke:none;fill-rule:nonzero;fill:rgb(100%,100%,100%);fill-opacity:1;" d="M 28.25 127.28125 L 35.25 127.28125 L 35.25 140.28125 L 28.25 140.28125 Z M 28.25 127.28125 "/>
<g style="fill:rgb(20%,80%,80%);fill-opacity:1;">
  <use xlink:href="#glyph0-4" x="28.25" y="137.182617"/>
</g>
</g>
</svg>

<svg xmlns="http://www.w3.org/2000/svg" xmlns:xlink="http://www.w3.org/1999/xlink" width="300pt" height="300pt" viewBox="0 0 300 300"><defs><symbol overflow="visible"><path d="M.547 1.938V-7.75h5.5v9.688zm.625-.61h4.266v-8.47H1.171zm0 0"/></symbol><symbol overflow="visible" id="a"><path d="M4.328-7.28c-.78 0-1.406.296-1.875.89-.46.585-.687 1.382-.687 2.39 0 1.012.226 1.813.687 2.406.47.586 1.094.875 1.875.875.79 0 1.414-.288 1.875-.874.457-.593.688-1.394.688-2.406 0-1.008-.23-1.805-.687-2.39-.46-.594-1.086-.89-1.875-.89zm0-.892c1.125 0 2.024.383 2.703 1.14C7.708-6.28 8.048-5.27 8.048-4c0 1.262-.34 2.273-1.016 3.03C6.353-.22 5.454.157 4.33.157S2.3-.22 1.625-.97c-.668-.75-1-1.757-1-3.03 0-1.27.332-2.28 1-3.03.676-.76 1.578-1.142 2.703-1.142zm0 0"/></symbol><symbol overflow="visible" id="b"><path d="M1.078-8.016h1.47l3.546 6.704v-6.704h1.062V0H5.688L2.124-6.703V0H1.078zm0 0"/></symbol><symbol overflow="visible" id="c"><path d="M1.078-8.016h1.094v3.282H6.11v-3.282h1.077V0H6.11v-3.813H2.17V0H1.078zm0 0"/></symbol><symbol overflow="visible" id="d"><path d="M1.078-8.016h4.61v.907H2.171v2.36h3.172v.922H2.172V0H1.078zm0 0"/></symbol></defs><g><path fill="#fff" d="M0 0h300v300H0z"/><path d="M255.676 72.21l-11.528 6.57" stroke-width="1.2" stroke="#000" stroke-miterlimit="10" fill="none"/><path d="M244.148 78.78l-11.527 6.572M232.62 85.352l-.07 13.27" stroke-width="1.2" stroke="#f00" stroke-miterlimit="10" fill="none"/><path d="M232.55 98.62l-.073 13.267" stroke-width="1.2" stroke="#000" stroke-miterlimit="10" fill="none"/><path d="M228.62 78.852h9v13h-9zm0 0" fill="#fff"/><use xlink:href="#a" x="228.621" y="88.753" fill="#f00"/><path d="M230.902 114.582l11.453 6.695" stroke-width="1.2" stroke="#000" stroke-miterlimit="10" fill="none"/><path d="M242.355 121.277l11.454 6.7" stroke-width="1.2" stroke="#f00" stroke-miterlimit="10" fill="none"/><path d="M234.05 109.19l11.454 6.697" stroke-width="1.2" stroke="#000" stroke-miterlimit="10" fill="none"/><path d="M245.504 115.887l11.453 6.7" stroke-width="1.2" stroke="#f00" stroke-miterlimit="10" fill="none"/><path d="M209.426 125.027m2.824-1.01l-.516-.904m3.34-.105l-1.03-1.813m3.854.8l-1.546-2.718m4.37 1.71l-2.066-3.624m4.89 2.614l-2.58-4.532m5.41 3.52l-3.103-5.434m5.926 4.427l-3.618-6.344m6.44 5.332l-4.13-7.246m6.905 6.253l-4.64-8.133" stroke="#000" stroke-miterlimit="10" fill="none"/><path d="M251.383 118.78h9v13h-9zm0 0" fill="#fff"/><use xlink:href="#a" x="251.383" y="128.683" fill="#f00"/><path d="M209.426 125.027l-26.535-.144M196.03 147.934l13.396-22.907" stroke-width="1.2" stroke="#000" stroke-miterlimit="10" fill="none"/><path d="M196.03 147.934l-9.073-25.37-8.133 4.635zm0 0"/><path d="M196.03 147.934l-.143 26.535" stroke-width="1.2" stroke="#000" stroke-miterlimit="10" fill="none"/><path d="M195.887 174.47L216.43 191.9l4.726-8.082zm0 0"/><path d="M195.887 174.47l-11.528 6.57" stroke-width="1.2" stroke="#000" stroke-miterlimit="10" fill="none"/><path d="M184.36 181.04l-11.528 6.57" stroke-width="1.2" stroke="#00f" stroke-miterlimit="10" fill="none"/><path d="M218.793 187.86l-.148 26.535M225.02 190.547l-.118 21.23M241.844 174.72l-23.05 13.14M218.645 214.395l22.906 13.394M241.55 227.79l23.055-13.142M240.766 221.05l18.44-10.51M264.605 214.648l.145-26.535M264.75 188.113l-22.906-13.394M259.31 192.164l-18.326-10.715" stroke-width="1.2" stroke="#000" stroke-miterlimit="10" fill="none"/><path d="M172.832 187.61l-11.453-6.7" stroke-width="1.2" stroke="#00f" stroke-miterlimit="10" fill="none"/><path d="M161.38 180.91l-11.454-6.695" stroke-width="1.2" stroke="#000" stroke-miterlimit="10" fill="none"/><path d="M164.832 181.11h17v13h-17zm0 0" fill="#fff"/><g fill="#00f"><use xlink:href="#b" x="164.832" y="191.011"/><use xlink:href="#c" x="172.815" y="191.011"/></g><path d="M153.047 174.23l.074-13.265" stroke-width="1.2" stroke="#000" stroke-miterlimit="10" fill="none"/><path d="M153.12 160.965l.075-13.266" stroke-width="1.2" stroke="#f00" stroke-miterlimit="10" fill="none"/><path d="M146.805 174.2l.074-13.27" stroke-width="1.2" stroke="#000" stroke-miterlimit="10" fill="none"/><path d="M146.88 160.93l.073-13.266" stroke-width="1.2" stroke="#f00" stroke-miterlimit="10" fill="none"/><path d="M149.926 174.215l-11.524 6.57" stroke-width="1.2" stroke="#000" stroke-miterlimit="10" fill="none"/><path d="M138.402 180.785l-11.527 6.57" stroke-width="1.2" stroke="#f00" stroke-miterlimit="10" fill="none"/><path d="M146.074 141.18h9v13h-9zm0 0" fill="#fff"/><use xlink:href="#a" x="146.074" y="151.081" fill="#f00"/><path d="M126.875 187.355l-11.453-6.695" stroke-width="1.2" stroke="#f00" stroke-miterlimit="10" fill="none"/><path d="M115.422 180.66l-11.453-6.7" stroke-width="1.2" stroke="#000" stroke-miterlimit="10" fill="none"/><path d="M122.875 180.855h9v13h-9zm0 0" fill="#fff"/><use xlink:href="#a" x="122.875" y="190.757" fill="#f00"/><path d="M103.97 173.96l.143-26.53M97.738 171.273l.117-21.226M80.918 187.105l23.05-13.144M104.113 147.43l-22.906-13.395M81.207 134.035l-23.05 13.14M81.996 140.773l-18.44 10.512M58.156 147.176l-.144 26.535M58.156 147.176l-11.453-6.696" stroke-width="1.2" stroke="#000" stroke-miterlimit="10" fill="none"/><path d="M46.703 140.48l-11.453-6.7" stroke-width="1.2" stroke="#3cc" stroke-miterlimit="10" fill="none"/><path d="M58.012 173.71l22.906 13.395M63.453 169.66l18.324 10.715" stroke-width="1.2" stroke="#000" stroke-miterlimit="10" fill="none"/><path d="M28.25 127.28h7v13h-7zm0 0" fill="#fff"/><use xlink:href="#d" x="28.25" y="137.183" fill="#3cc"/></g></svg>
